16x16/apps/baidunetdisk.svg

<svg xmlns="http://www.w3.org/2000/svg" width="16" height="16" version="1">
 <rect style="fill:#f4f4f7" width="16" height="16" x="0" y="0" rx="4.8" ry="4.8"/>
 <path style="fill:#3a9bff" d="M 2.5870303,11.599186 10.212382,5.6161096 10.602592,5.9625074 11.15487,7.5076978 7.0594778,11.891343 4.9688129,12.586103 4.3468534,11.835475 3.8267262,11.553688 Z"/>
 <path style="fill:none;stroke:#3a9bff;stroke-width:2;stroke-linecap:round;stroke-linejoin:round" d="m 10.697306,7.1219155 a 2.5040174,2.5040174 0 0 1 3.062379,1.333679 2.5040174,2.5040174 0 0 1 -0.98772,3.1908105 2.5040174,2.5040174 0 0 1 -3.2802952,-0.629706"/>
 <circle style="fill:#3a9bff" cx="4.5" cy="9.5" r="3.5"/>
 <circle style="fill:#f4f4f7" cx="4.5" cy="9.5" r="1.5"/>
 <circle style="fill:#f4f4f7" cx="11.5" cy="9.5" r="1.5"/>
 <rect style="fill:#fe6282" width="3" height="1" x="5" y="15"/>
 <rect style="fill:#3a9bff" width="3" height="1" x="8" y="15"/>
 <circle style="fill:#3a9bff" cx="8" cy="5" r="4"/>
 <path style="fill:none;stroke:#fe6080;stroke-width:2;stroke-linecap:round;stroke-linejoin:round" d="M 11.002256,5.4578565 A 3.0446565,3.0446565 0 0 1 8.0033407,7.9999972 3.0446565,3.0446565 0 0 1 4.9977803,5.4657163"/>
 <circle style="fill:#f4f4f7" cx="8" cy="5" r="2"/>
</svg>

<svg xmlns="http://www.w3.org/2000/svg" width="16" height="16" version="1"><rect style="fill:#f4f4f7" width="16" height="16" rx="4.8" ry="4.8"/><path style="fill:#3a9bff" d="m2.587 11.6 7.625-5.984.39.347.553 1.545-4.096 4.383-2.09.695-.622-.75-.52-.282z"/><path style="fill:none;stroke:#3a9bff;stroke-width:2;stroke-linecap:round;stroke-linejoin:round" d="M10.697 7.122a2.504 2.504 0 0 1 3.063 1.334 2.504 2.504 0 0 1-.988 3.19 2.504 2.504 0 0 1-3.28-.63"/><circle style="fill:#3a9bff" cx="4.5" cy="9.5" r="3.5"/><circle style="fill:#f4f4f7" cx="4.5" cy="9.5" r="1.5"/><circle style="fill:#f4f4f7" cx="11.5" cy="9.5" r="1.5"/><path style="fill:#fe6282" d="M5 15h3v1H5z"/><path style="fill:#3a9bff" d="M8 15h3v1H8z"/><circle style="fill:#3a9bff" cx="8" cy="5" r="4"/><path style="fill:none;stroke:#fe6080;stroke-width:2;stroke-linecap:round;stroke-linejoin:round" d="M11.002 5.458A3.045 3.045 0 0 1 8.003 8a3.045 3.045 0 0 1-3.005-2.534"/><circle style="fill:#f4f4f7" cx="8" cy="5" r="2"/></svg>
